src/images/svg/symbols/index100s1-new.svg

<svg width="33" height="32" viewBox="0 0 33 32" fill="none" xmlns="http://www.w3.org/2000/svg">
<path d="M23.166 13.0001H24.666V22H23.166V32H22.166V22H20.666V13.0001H22.166V11.0001H23.166V13.0001Z" fill="#85ACB0"/>
<path d="M30.666 11V18H29.166V22H28.166V18H26.666V11H30.666Z" fill="#85ACB0"/>
<path d="M17.166 20V16H16.166V20H14.666V28H16.166V30H17.166V28H18.666V20H17.166Z" fill="#85ACB0"/>
<path d="M11.166 15H12.666V21H11.166V28H10.166V21H8.66602V15H10.166V13H11.166V15Z" fill="#85ACB0"/>
<path d="M5.16602 19H6.66602V23H5.16602V25H4.16602V23H2.66602V19H4.16602V17H5.16602V19Z" fill="#85ACB0"/>
<path d="M22.666 5C22.666 2.23858 24.9046 0 27.666 0C30.4274 0 32.666 2.23858 32.666 5C32.666 7.76142 30.4274 10 27.666 10C24.9046 10 22.666 7.76142 22.666 5Z" fill="#FF444F"/>
<path d="M24.9204 7.0005V6.2745H26.0484V3.4665H25.9944L25.1424 4.5825L24.5664 4.1325L25.5684 2.8125H26.9484V6.2745H27.8364V7.0005H24.9204Z" fill="white"/>
<path d="M29.4361 7.0725C29.1321 7.0725 28.8761 7.0245 28.6681 6.9285C28.4601 6.8285 28.2741 6.6885 28.1101 6.5085L28.6321 5.9805C28.7441 6.1045 28.8681 6.2025 29.0041 6.2745C29.1401 6.3465 29.2941 6.3825 29.4661 6.3825C29.6421 6.3825 29.7641 6.3565 29.8321 6.3045C29.9001 6.2485 29.9341 6.1745 29.9341 6.0825C29.9341 5.9345 29.8281 5.8465 29.6161 5.8185L29.2741 5.7765C28.5661 5.6885 28.2121 5.3645 28.2121 4.8045C28.2121 4.6525 28.2401 4.5145 28.2961 4.3905C28.3561 4.2625 28.4381 4.1545 28.5421 4.0665C28.6501 3.9745 28.7781 3.9045 28.9261 3.8565C29.0781 3.8045 29.2481 3.7785 29.4361 3.7785C29.6001 3.7785 29.7441 3.7905 29.8681 3.8145C29.9961 3.8345 30.1081 3.8665 30.2041 3.9105C30.3041 3.9505 30.3941 4.0025 30.4741 4.0665C30.5581 4.1265 30.6401 4.1945 30.7201 4.2705L30.2101 4.7925C30.1101 4.6925 29.9961 4.6145 29.8681 4.5585C29.7441 4.4985 29.6161 4.4685 29.4841 4.4685C29.3321 4.4685 29.2241 4.4925 29.1601 4.5405C29.0961 4.5885 29.0641 4.6525 29.0641 4.7325C29.0641 4.8165 29.0861 4.8825 29.1301 4.9305C29.1781 4.9745 29.2661 5.0065 29.3941 5.0265L29.7481 5.0745C30.4401 5.1665 30.7861 5.4825 30.7861 6.0225C30.7861 6.1745 30.7541 6.3145 30.6901 6.4425C30.6261 6.5705 30.5341 6.6825 30.4141 6.7785C30.2981 6.8705 30.1561 6.9425 29.9881 6.9945C29.8241 7.0465 29.6401 7.0725 29.4361 7.0725Z" fill="white"/>
<path d="M0.666016 2C0.666016 0.89543 1.56145 0 2.66602 0H17.666C18.7706 0 19.666 0.895431 19.666 2V8C19.666 9.10457 18.7706 10 17.666 10H2.66602C1.56145 10 0.666016 9.10457 0.666016 8V2Z" fill="#0E0E0E"/>
<path d="M3.722 8.00031V7.03231H5.226V3.28831H5.154L4.018 4.77631L3.25 4.17631L4.586 2.41631H6.426V7.03231H7.61V8.00031H3.722Z" fill="white"/>
<path d="M10.1669 8.09631C9.43621 8.09631 8.89488 7.84298 8.54288 7.33631C8.19088 6.82965 8.01488 6.12031 8.01488 5.20831C8.01488 4.29631 8.19088 3.58698 8.54288 3.08031C8.89488 2.57365 9.43621 2.32031 10.1669 2.32031C10.8975 2.32031 11.4389 2.57365 11.7909 3.08031C12.1429 3.58698 12.3189 4.29631 12.3189 5.20831C12.3189 6.12031 12.1429 6.82965 11.7909 7.33631C11.4389 7.84298 10.8975 8.09631 10.1669 8.09631ZM10.1669 7.08031C10.4869 7.08031 10.7082 6.96298 10.8309 6.72831C10.9535 6.49365 11.0149 6.16298 11.0149 5.73631V4.68031C11.0149 4.25365 10.9535 3.92298 10.8309 3.68831C10.7082 3.45365 10.4869 3.33631 10.1669 3.33631C9.84687 3.33631 9.62554 3.45365 9.50288 3.68831C9.38021 3.92298 9.31888 4.25365 9.31888 4.68031V5.73631C9.31888 6.16298 9.38021 6.49365 9.50288 6.72831C9.62554 6.96298 9.84687 7.08031 10.1669 7.08031Z" fill="white"/>
<path d="M14.9637 8.09631C14.2331 8.09631 13.6918 7.84298 13.3398 7.33631C12.9878 6.82965 12.8118 6.12031 12.8118 5.20831C12.8118 4.29631 12.9878 3.58698 13.3398 3.08031C13.6918 2.57365 14.2331 2.32031 14.9637 2.32031C15.6944 2.32031 16.2358 2.57365 16.5878 3.08031C16.9398 3.58698 17.1158 4.29631 17.1158 5.20831C17.1158 6.12031 16.9398 6.82965 16.5878 7.33631C16.2358 7.84298 15.6944 8.09631 14.9637 8.09631ZM14.9637 7.08031C15.2837 7.08031 15.5051 6.96298 15.6278 6.72831C15.7504 6.49365 15.8118 6.16298 15.8118 5.73631V4.68031C15.8118 4.25365 15.7504 3.92298 15.6278 3.68831C15.5051 3.45365 15.2837 3.33631 14.9637 3.33631C14.6438 3.33631 14.4224 3.45365 14.2998 3.68831C14.1771 3.92298 14.1158 4.25365 14.1158 4.68031V5.73631C14.1158 6.16298 14.1771 6.49365 14.2998 6.72831C14.4224 6.96298 14.6438 7.08031 14.9637 7.08031Z" fill="white"/>
</svg>

<svg width="33" height="32" fill="none" xmlns="http://www.w3.org/2000/svg"><path d="M23.166 13h1.5v9h-1.5v10h-1V22h-1.5v-9h1.5v-2h1v2ZM30.666 11v7h-1.5v4h-1v-4h-1.5v-7h4ZM17.166 20v-4h-1v4h-1.5v8h1.5v2h1v-2h1.5v-8h-1.5ZM11.166 15h1.5v6h-1.5v7h-1v-7h-1.5v-6h1.5v-2h1v2ZM5.166 19h1.5v4h-1.5v2h-1v-2h-1.5v-4h1.5v-2h1v2Z" fill="#85ACB0"/><path d="M22.666 5a5 5 0 1 1 10 0 5 5 0 0 1-10 0Z" fill="#FF444F"/><path d="M24.92 7v-.726h1.128V3.466h-.054l-.852 1.116-.576-.45 1.002-1.32h1.38v3.462h.888V7H24.92ZM29.436 7.072c-.304 0-.56-.048-.768-.144-.208-.1-.394-.24-.558-.42l.522-.527c.112.123.236.221.372.293.136.072.29.109.462.109.176 0 .298-.027.366-.079a.273.273 0 0 0 .102-.222c0-.147-.106-.236-.318-.263l-.342-.042c-.708-.088-1.062-.413-1.062-.973 0-.152.028-.29.084-.413a.942.942 0 0 1 .246-.325c.108-.091.236-.161.384-.21.152-.051.322-.077.51-.077.164 0 .308.012.432.035.128.02.24.052.336.096.1.04.19.093.27.156.084.06.166.128.246.205l-.51.522c-.1-.1-.214-.179-.342-.234a.872.872 0 0 0-.384-.09c-.152 0-.26.023-.324.071a.228.228 0 0 0-.096.192c0 .084.022.15.066.199.048.043.136.075.264.096l.354.047c.692.093 1.038.409 1.038.949a.926.926 0 0 1-.096.42c-.064.128-.156.24-.276.336a1.293 1.293 0 0 1-.426.216 1.822 1.822 0 0 1-.552.077Z" fill="#fff"/><path d="M.666 2a2 2 0 0 1 2-2h15a2 2 0 0 1 2 2v6a2 2 0 0 1-2 2h-15a2 2 0 0 1-2-2V2Z" fill="#0E0E0E"/><path d="M3.722 8v-.968h1.504V3.288h-.072L4.018 4.776l-.768-.6 1.336-1.76h1.84v4.616H7.61V8H3.722ZM10.167 8.096c-.73 0-1.272-.253-1.624-.76-.352-.506-.528-1.216-.528-2.128 0-.912.176-1.621.528-2.128.352-.506.893-.76 1.624-.76.73 0 1.272.254 1.624.76.352.507.528 1.216.528 2.128 0 .912-.176 1.622-.528 2.128-.352.507-.893.76-1.624.76Zm0-1.016c.32 0 .541-.117.664-.352.123-.234.184-.565.184-.992V4.68c0-.426-.062-.757-.184-.992-.123-.234-.344-.352-.664-.352-.32 0-.541.118-.664.352-.123.235-.184.566-.184.992v1.056c0 .427.061.758.184.992.123.235.344.352.664.352ZM14.964 8.096c-.73 0-1.272-.253-1.624-.76-.352-.506-.528-1.216-.528-2.128 0-.912.176-1.621.528-2.128.352-.506.893-.76 1.624-.76.73 0 1.272.254 1.624.76.352.507.528 1.216.528 2.128 0 .912-.176 1.622-.528 2.128-.352.507-.894.76-1.624.76Zm0-1.016c.32 0 .541-.117.664-.352.122-.234.184-.565.184-.992V4.68c0-.426-.062-.757-.184-.992-.123-.234-.344-.352-.664-.352-.32 0-.542.118-.664.352-.123.235-.184.566-.184.992v1.056c0 .427.061.758.184.992.122.235.344.352.664.352Z" fill="#fff"/></svg>
